X:113
T:Ye sit in the sun sae louzy
Z:Jack Campin - http://www.campin.me.uk
S:Blaikie MS (NLS MS.1578) p33, Blaikie #107
M:6/8
L:1/8
V:1 midi program 1 74
V:2 midi program 1 46 bass middle = d transpose -24
Q:3/8=90
K:G
[V:1] G|Bdd d2d|e3   d2G|Bdd d2d|e3  d2G|
[V:2] z|G3  g3 |c'3  b3 |g3  b3 |c'3 b3 |
%
[V:1]   Bdd dBd|e2d  d2c|B2B BAG|A3  G2|]
[V:2]   g3  g3 |c'2b b2a|g3  G3 |d3  g2|]
W:Transcription (c) Jack Campin 2009, no mirroring or republication without permission

